X:1
T:Title
%%score 1 { 2 | 3 }
L:1/8
Q:1/4=90
M:2/4
K:G
V:1 treble nm="Grand Piano, Soprano"
V:2 bass nm="Choir Pad, Sometime (Fielder)"
V:3 bass 
V:1
 [B,D]2 [B,D][B,D] | [B,D][B,D] [B,D][FA] | [GB][Ge] [Gd]2 | [GB]2 z2 | [GB]2 [Gd][Gd] | %5
w: By~A.~B.~Carroll * *|||||
 [DG][DG] [FA][FA] | [DB][EG] [FA]2 | D2 D[B,D] | [CE][B,D] [DG][FA] | [GB][Ge] [Gd]2 | %10
w: |||||
 [GB]G [GB]2 | [DA]2 [DG]2 | [GB]2 [GB][GB] | [Gd][Gd] [Ge][Dd] | [EG][FA] [GB]2 | [Gd]2 z2 | %16
w: ||||||
 [Gd]2 [Ge][Gd] | [DB][Gd] G[FA] | [GB]G [FA]2 | D2 D[B,D] | [CE][B,D] [DG][FA] | [GB][Ge] [Gd]2 | %22
w: ||||||
 [GB]G [GB]2 | [DA]2 [DG]2- | [DG]4- | [DG]2 z2 |] %26
w: ||||
V:2
 G,2 G,G, | G,G, G,F, | G,C B,2 | D2 z2 | D2 B,B, | DD DD | B,^C D2 | B,A, G,G, | G,G, G,F, | %9
 G,[K:treble]C B,2 | D^C D2 | C2[K:bass] B,2 | G,2 G,G, | G,B, CB, | A,D D2 | B,2 z2 | B,2 CB, | %17
 G,B,[K:treble] DD | D^C D2 | B,A, G,G, | G,G, G,F, | G,[K:treble]C B,2 | D^C D2 | %23
 C2[K:bass] B,2- | B,4- | B,2 z2 |] %26
V:3
 G,,2 G,,G,, | G,,G,, B,,D, | z G, G,2 | G,2 z2 | G,2 G,G, | B,,B,, D,D, | G,E, D,2 | D,C, B,,G,, | %8
 G,,G,, B,,D, | z G, G,2 | G,E, D,2 | D,2 [G,,G,]2 | E,2 E,E, | B,,G,, G,G, | E,D, G,2 | G,2 z2 | %16
 G,2 G,G, | z G, B,,D, | G,E, D,2 | D,C, B,,G,, | G,,G,, B,,D, | z G, G,2 | G,E, D,2 | %23
 D,2 [G,,G,]2- | [G,,G,]4- | [G,,G,]2 z2 |] %26

